public/img/values/value-2.svg

<svg width="51" height="60" viewBox="0 0 51 60" fill="none" xmlns="http://www.w3.org/2000/svg">
<path d="M27.2533 58.2933C26.1867 58.6933 25.12 59.0666 24 59.3333C10.24 55.9733 0 42.1333 0 27.3333V11.3333L24 0.666626L48 11.3333V27.3333C48 29.7333 47.7067 32.08 47.2 34.4C45.04 33.3066 42.5867 32.6666 40 32.6666C31.1733 32.6666 24 39.84 24 48.6666C24 52.2933 25.2267 55.6266 27.2533 58.2933ZM42.6667 51.3333V59.3066C42.6667 59.3066 37.36 59.3333 37.3333 59.3066V51.3333H29.3333V46H37.3333V38H42.6667V46H50.6667V51.3333H42.6667Z" fill="#EB2629"/>
</svg>

<svg width="51" height="60" fill="none" xmlns="http://www.w3.org/2000/svg"><path d="M27.25 58.3c-1.06.4-2.13.77-3.25 1.03-13.76-3.36-24-17.2-24-32v-16L24 .67l24 10.66v16a33 33 0 0 1-.8 7.07 15.93 15.93 0 0 0-7.2-1.73c-8.83 0-16 7.17-16 16 0 3.62 1.23 6.96 3.25 9.62Zm15.42-6.97v7.98s-5.31.02-5.34 0v-7.98h-8V46h8v-8h5.34v8h8v5.33h-8Z" fill="#EB2629"/></svg>
